casedrop/img/icons/media/tg.svg

<svg width="20" height="17" viewBox="0 0 20 17" fill="none" xmlns="http://www.w3.org/2000/svg">
<path d="M17.6339 0.548587C17.6339 0.548587 19.3684 -0.127753 19.2239 1.51479C19.1757 2.19114 18.7421 4.55832 18.4048 7.11877L17.2484 14.7035C17.2484 14.7035 17.1521 15.8146 16.2848 16.0078C15.4176 16.201 14.1167 15.3315 13.8758 15.1382C13.683 14.9933 10.2622 12.8193 9.05769 11.7565C8.72041 11.4667 8.33497 10.8869 9.10586 10.2106L14.1649 5.37962C14.743 4.79989 15.3212 3.44721 12.9122 5.08975L6.16684 9.67922C6.16684 9.67922 5.39595 10.1623 3.95055 9.72752L0.81877 8.76131C0.81877 8.76131 -0.337573 8.03667 1.63785 7.31198C6.45595 5.0414 12.3822 2.72252 17.6339 0.548587Z" fill="#393F4F"/>
</svg>

<svg width="20" height="17" fill="none" xmlns="http://www.w3.org/2000/svg"><path d="M17.634.549s1.734-.677 1.59.966c-.048.676-.482 3.043-.82 5.604l-1.156 7.585s-.096 1.11-.963 1.304c-.867.193-2.168-.676-2.41-.87-.192-.145-3.613-2.319-4.817-3.381-.338-.29-.723-.87.048-1.546l5.059-4.831c.578-.58 1.156-1.933-1.253-.29L6.167 9.68s-.771.482-2.216.048L.819 8.76s-1.157-.724.819-1.449c4.818-2.27 10.744-4.59 15.996-6.763z" fill="#393F4F"/></svg>
